X:1
T: Mr. Richardson's Jig
C:
R:Jig
Q:180
K:G
M:6/8
L:1/16
F2|G4G2 G2D2B,2|G,2B,2D2 G2A2B2|c6B6|A2B2G2 F2E2D2|G4G2 G2D2B,2|G,2B,2D2 G2A2B2|c2d2e2 d2e2f2|g2d2c2 B2A2B2|
G4G2 G2D2B,2|G,2B,2D2 G2A2B2|c6B6|A2B2G2 F2E2D2|G4G2 G2D2B,2|G,2B,2D2 G2A2B2|c2d2e2 d2e2f2|g6G4f2|
g4g2 g2d2B2|g2d2B2 d2e2f2|g2a2g2 g2d2B2|A2a2g2 f2e2d2|g4g2 g2d2B2|g2d2B2 d2e2f2|g2a2b2 a2g2f2|g2d2B2 G2B2d2|
g4g2 g2d2B2|g2d2B2 d2e2f2|g2a2g2 g2d2B2|A2a2g2 f2e2d2|g2a2b2 f2g2a2|e2f2g2 f2e2d2|c2d2e2 d2e2f2|g2d2c2 B2A2B2|
G4G2 G2D2B,2|G,2B,2D2 G2A2B2|c6B6|A2B2G2 F2E2D2|G4G2 G2D2B,2|G,2B,2D2 G2A2B2|c2d2e2 d2e2f2|g2d2c2 B2A2B2|
G4G2 G2D2B,2|G,2B,2D2 G2A2B2|c6B6|A2B2G2 F2E2D2|G4G2 G2D2B,2|G,2B,2D2 G2A2B2|c2d2e2 d2e2f2|g6G4||
